mobile/apps/auth/assets/custom-icons/icons/habbo.svg

<?xml version="1.0" encoding="UTF-8"?>
<!DOCTYPE svg PUBLIC "-//W3C//DTD SVG 1.1//EN" "http://www.w3.org/Graphics/SVG/1.1/DTD/svg11.dtd">
<svg xmlns="http://www.w3.org/2000/svg" version="1.1" width="320px" height="320px" style="shape-rendering:geometricPrecision; text-rendering:geometricPrecision; image-rendering:optimizeQuality; fill-rule:evenodd; clip-rule:evenodd" xmlns:xlink="http://www.w3.org/1999/xlink">
<g><path style="opacity:1" fill="#211c1d" d="M -0.5,-0.5 C 106.167,-0.5 212.833,-0.5 319.5,-0.5C 319.5,106.167 319.5,212.833 319.5,319.5C 212.833,319.5 106.167,319.5 -0.5,319.5C -0.5,212.833 -0.5,106.167 -0.5,-0.5 Z"/></g>
<g><path style="opacity:1" fill="#282307" d="M 267.5,51.5 C 235.373,50.1781 203.373,50.1781 171.5,51.5C 170.833,51.8333 170.167,52.1667 169.5,52.5C 169.5,51.5 169.5,50.5 169.5,49.5C 201.835,49.3334 234.168,49.5 266.5,50C 267.056,50.3826 267.389,50.8826 267.5,51.5 Z"/></g>
<g><path style="opacity:1" fill="#211a20" d="M 47.5,53.5 C 47.5,123.5 47.5,193.5 47.5,263.5C 47.9492,265.977 47.2825,267.977 45.5,269.5C 44.8076,268.975 44.3076,268.308 44,267.5C 43.1747,216.522 43.6747,165.689 45.5,115C 45.3333,98.1667 45.1667,81.3333 45,64.5C 44.0565,63.737 43.5565,62.737 43.5,61.5C 44.3464,57.8822 44.6797,54.2155 44.5,50.5C 45.5,50.5 46.5,50.5 47.5,50.5C 47.5,51.5 47.5,52.5 47.5,53.5 Z"/></g>
<g><path style="opacity:1" fill="#211b20" d="M 272.5,51.5 C 274.275,55.3864 275.108,59.7197 275,64.5C 275.667,93.8333 275.667,123.167 275,152.5C 273.897,154.629 273.397,156.963 273.5,159.5C 274.789,191.496 274.789,223.496 273.5,255.5C 272.5,187.503 272.167,119.503 272.5,51.5 Z"/></g>
<g><path style="opacity:1" fill="#261f07" d="M 148.5,51.5 C 116.137,50.1731 83.8036,50.1731 51.5,51.5C 50.8333,51.5 50.5,51.8333 50.5,52.5C 49.5008,121.998 49.1675,191.665 49.5,261.5C 48.5008,192.335 48.1675,123.002 48.5,53.5C 48.5,52.5 48.5,51.5 48.5,50.5C 65.6366,49.854 82.8033,49.5207 100,49.5C 116.514,49.5005 132.681,50.1672 148.5,51.5 Z"/></g>
<g><path style="opacity:1" fill="#ede144" d="M 148.5,51.5 C 148.5,51.8333 148.5,52.1667 148.5,52.5C 148.19,72.8793 148.523,93.2126 149.5,113.5C 155.842,113.666 162.175,113.5 168.5,113C 169.056,112.617 169.389,112.117 169.5,111.5C 170.189,91.6279 170.856,71.6279 171.5,51.5C 203.373,50.1781 235.373,50.1781 267.5,51.5C 267.5,88.5 267.5,125.5 267.5,162.5C 266.833,162.833 266.167,163.167 265.5,163.5C 194.167,163.5 122.833,163.5 51.5,163.5C 51.5,126.167 51.5,88.8333 51.5,51.5C 83.8036,50.1731 116.137,50.1731 148.5,51.5 Z"/></g>
<g><path style="opacity:1" fill="#fef133" d="M 149.5,113.5 C 152.258,114.818 155.424,115.485 159,115.5C 162.167,115.333 165.333,115.167 168.5,115C 169.333,114.167 170.167,113.333 171,112.5C 172.122,95.842 172.955,79.1753 173.5,62.5C 173.167,61.8333 172.833,61.1667 172.5,60.5C 175.785,60.3019 177.452,58.6352 177.5,55.5C 174.12,55.8206 173.287,54.8206 175,52.5C 205.093,53.4955 235.26,53.8288 265.5,53.5C 265.5,89.8333 265.5,126.167 265.5,162.5C 195.166,162.667 124.833,162.5 54.5,162C 53.8333,161.333 53.1667,160.667 52.5,160C 53.3296,126.905 53.8296,93.7382 54,60.5C 56.0476,58.494 55.5476,57.494 52.5,57.5C 52.2003,54.756 53.367,53.0894 56,52.5C 84.5381,52.8154 112.871,53.8154 141,55.5C 142.658,51.997 144.492,52.1637 146.5,56C 145.993,58.5411 145.326,61.0411 144.5,63.5C 143.501,77.4841 143.167,91.4841 143.5,105.5C 144.5,105.5 145.5,105.5 146.5,105.5C 146.167,108.167 145.833,110.833 145.5,113.5C 146.833,113.5 148.167,113.5 149.5,113.5 Z"/></g>
<g><path style="opacity:1" fill="#2f280f" d="M 148.5,52.5 C 149.117,52.6107 149.617,52.944 150,53.5C 150.5,72.8305 150.667,92.1638 150.5,111.5C 156.167,111.5 161.833,111.5 167.5,111.5C 167.097,101.439 167.097,91.2721 167.5,81C 167.419,71.3791 166.753,61.8791 165.5,52.5C 166.833,52.5 168.167,52.5 169.5,52.5C 169.5,72.1667 169.5,91.8333 169.5,111.5C 169.389,112.117 169.056,112.617 168.5,113C 162.175,113.5 155.842,113.666 149.5,113.5C 148.523,93.2126 148.19,72.8793 148.5,52.5 Z"/></g>
<g><path style="opacity:1" fill="#d1c748" d="M 171.5,51.5 C 170.856,71.6279 170.189,91.6279 169.5,111.5C 169.5,91.8333 169.5,72.1667 169.5,52.5C 170.167,52.1667 170.833,51.8333 171.5,51.5 Z"/></g>
<g><path style="opacity:1" fill="#2e2306" d="M 267.5,51.5 C 268.833,86.827 269.5,122.494 269.5,158.5C 269.333,194.167 269.167,229.833 269,265.5C 268.617,266.056 268.117,266.389 267.5,266.5C 267.5,231.833 267.5,197.167 267.5,162.5C 267.5,125.5 267.5,88.5 267.5,51.5 Z"/></g>
<g><path style="opacity:1" fill="#c1ab44" d="M 51.5,51.5 C 51.5,88.8333 51.5,126.167 51.5,163.5C 51.5,163.833 51.5,164.167 51.5,164.5C 51.1668,198.173 51.5001,231.84 52.5,265.5C 83.3442,267.482 114.344,268.149 145.5,267.5C 114.264,268.828 82.931,268.828 51.5,267.5C 50.5034,195.904 50.1701,124.238 50.5,52.5C 50.5,51.8333 50.8333,51.5 51.5,51.5 Z"/></g>
<g><path style="opacity:1" fill="#fbd434" d="M 51.5,164.5 C 51.5,164.167 51.5,163.833 51.5,163.5C 122.833,163.5 194.167,163.5 265.5,163.5C 265.833,197.507 265.5,231.507 264.5,265.5C 234.687,265.195 204.854,265.528 175,266.5C 173.392,264.233 174.225,263.233 177.5,263.5C 177.299,259.65 175.466,258.65 172,260.5C 171.667,242.5 171.333,224.5 171,206.5C 170.329,205.748 169.496,205.414 168.5,205.5C 162.158,205.334 155.825,205.5 149.5,206C 148.944,206.383 148.611,206.883 148.5,207.5C 146.977,225.975 145.977,244.642 145.5,263.5C 144.833,264.167 144.167,264.833 143.5,265.5C 116.536,264.842 89.5361,264.175 62.5,263.5C 60.4287,260.301 57.4287,258.634 53.5,258.5C 53.8333,257.833 54.1667,257.167 54.5,256.5C 54.1768,225.525 53.1768,194.859 51.5,164.5 Z"/></g>
<g><path style="opacity:1" fill="#241c11" d="M 47.5,53.5 C 47.8333,53.5 48.1667,53.5 48.5,53.5C 48.1675,123.002 48.5008,192.335 49.5,261.5C 49.5,263.5 49.5,265.5 49.5,267.5C 48.8333,266.167 48.1667,264.833 47.5,263.5C 47.5,193.5 47.5,123.5 47.5,53.5 Z"/></g>
<g><path style="opacity:1" fill="#483c0a" d="M 50.5,52.5 C 50.1701,124.238 50.5034,195.904 51.5,267.5C 50.8333,267.5 50.1667,267.5 49.5,267.5C 49.5,265.5 49.5,263.5 49.5,261.5C 49.1675,191.665 49.5008,121.998 50.5,52.5 Z"/></g>
<g><path style="opacity:1" fill="#34260e" d="M 168.5,205.5 C 169.322,225.76 169.822,246.094 170,266.5C 170.717,267.044 171.217,267.711 171.5,268.5C 169.983,268.489 168.816,267.823 168,266.5C 167.5,246.836 167.333,227.169 167.5,207.5C 161.575,207.192 155.741,207.525 150,208.5C 149.832,227.671 149.332,246.671 148.5,265.5C 148.5,246.167 148.5,226.833 148.5,207.5C 148.611,206.883 148.944,206.383 149.5,206C 155.825,205.5 162.158,205.334 168.5,205.5 Z"/></g>
<g><path style="opacity:1" fill="#f3cf40" d="M 51.5,164.5 C 53.1768,194.859 54.1768,225.525 54.5,256.5C 54.1667,257.167 53.8333,257.833 53.5,258.5C 57.4287,258.634 60.4287,260.301 62.5,263.5C 89.5361,264.175 116.536,264.842 143.5,265.5C 144.167,264.833 144.833,264.167 145.5,263.5C 145.977,244.642 146.977,225.975 148.5,207.5C 148.5,226.833 148.5,246.167 148.5,265.5C 148.5,265.833 148.5,266.167 148.5,266.5C 147.609,267.11 146.609,267.443 145.5,267.5C 114.344,268.149 83.3442,267.482 52.5,265.5C 51.5001,231.84 51.1668,198.173 51.5,164.5 Z"/></g>
<g><path style="opacity:1" fill="#e4c548" d="M 267.5,162.5 C 267.5,197.167 267.5,231.833 267.5,266.5C 266.711,266.783 266.044,267.283 265.5,268C 234.168,268.5 202.835,268.667 171.5,268.5C 171.217,267.711 170.717,267.044 170,266.5C 169.822,246.094 169.322,225.76 168.5,205.5C 169.496,205.414 170.329,205.748 171,206.5C 171.333,224.5 171.667,242.5 172,260.5C 175.466,258.65 177.299,259.65 177.5,263.5C 174.225,263.233 173.392,264.233 175,266.5C 204.854,265.528 234.687,265.195 264.5,265.5C 265.5,231.507 265.833,197.507 265.5,163.5C 266.167,163.167 266.833,162.833 267.5,162.5 Z"/></g>
<g><path style="opacity:1" fill="#2b2007" d="M 148.5,266.5 C 148.5,267.5 148.5,268.5 148.5,269.5C 115.832,269.667 83.165,269.5 50.5,269C 49.944,268.617 49.6107,268.117 49.5,267.5C 50.1667,267.5 50.8333,267.5 51.5,267.5C 82.931,268.828 114.264,268.828 145.5,267.5C 146.609,267.443 147.609,267.11 148.5,266.5 Z"/></g>
<g><path style="opacity:1" fill="#2b2007" d="M 267.5,266.5 C 267.586,267.496 267.252,268.329 266.5,269C 234.664,269.831 202.997,269.664 171.5,268.5C 202.835,268.667 234.168,268.5 265.5,268C 266.044,267.283 266.711,266.783 267.5,266.5 Z"/></g>
</svg>

<svg xmlns="http://www.w3.org/2000/svg" style="shape-rendering:geometricPrecision;text-rendering:geometricPrecision;image-rendering:optimizeQuality;fill-rule:evenodd;clip-rule:evenodd" viewBox="0 0 320 320"><path fill="#211c1d" d="M-.5-.5h320v320H-.5V-.5Z" style="opacity:1"/><path fill="#282307" d="M267.5 51.5a1162.455 1162.455 0 0 0-96 0l-2 1v-3c32.335-.167 64.668 0 97 .5.556.383.889.883 1 1.5Z" style="opacity:1"/><path fill="#211a20" d="M47.5 53.5v210c.45 2.477-.218 4.477-2 6a4.451 4.451 0 0 1-1.5-2A2922.436 2922.436 0 0 1 45.5 115L45 64.5c-.944-.763-1.444-1.763-1.5-3a39.647 39.647 0 0 0 1-11h3v3Z" style="opacity:1"/><path fill="#211b20" d="M272.5 51.5c1.775 3.886 2.608 8.22 2.5 13 .667 29.333.667 58.667 0 88-1.103 2.129-1.603 4.463-1.5 7a1192.105 1192.105 0 0 1 0 96c-1-67.997-1.333-135.997-1-204Z" style="opacity:1"/><path fill="#261f07" d="M148.5 51.5a1182.325 1182.325 0 0 0-97 0c-.667 0-1 .333-1 1-1 69.498-1.333 139.165-1 209-1-69.165-1.333-138.498-1-208v-3c17.137-.646 34.303-.98 51.5-1 16.514 0 32.681.667 48.5 2Z" style="opacity:1"/><path fill="#ede144" d="M148.5 51.5v1c-.31 20.38.023 40.713 1 61 6.342.166 12.675 0 19-.5.556-.383.889-.883 1-1.5a22455.89 22455.89 0 0 0 2-60 1162.455 1162.455 0 0 1 96 0v111l-2 1h-214v-112a1182.325 1182.325 0 0 1 97 0Z" style="opacity:1"/><path fill="#fef133" d="M149.5 113.5c2.758 1.318 5.924 1.985 9.5 2l9.5-.5 2.5-2.5a1447.61 1447.61 0 0 0 2.5-50l-1-2c3.285-.198 4.952-1.865 5-5-3.38.32-4.213-.68-2.5-3 30.093.995 60.26 1.329 90.5 1v109c-70.334.167-140.667 0-211-.5l-2-2c.83-33.095 1.33-66.262 1.5-99.5 2.048-2.006 1.548-3.006-1.5-3-.3-2.744.867-4.41 3.5-5 28.538.315 56.871 1.315 85 3 1.658-3.503 3.492-3.336 5.5.5a61.03 61.03 0 0 1-2 7.5 441.816 441.816 0 0 0-1 42h3l-1 8h4Z" style="opacity:1"/><path fill="#2f280f" d="M148.5 52.5c.617.11 1.117.444 1.5 1 .5 19.33.667 38.664.5 58h17a384.86 384.86 0 0 1 0-30.5c-.081-9.62-.747-19.12-2-28.5h4v59c-.111.617-.444 1.117-1 1.5-6.325.5-12.658.666-19 .5a963.242 963.242 0 0 1-1-61Z" style="opacity:1"/><path fill="#d1c748" d="M171.5 51.5a22455.89 22455.89 0 0 1-2 60v-59l2-1Z" style="opacity:1"/><path fill="#2e2306" d="M267.5 51.5c1.333 35.327 2 70.994 2 107l-.5 107c-.383.556-.883.889-1.5 1v-215Z" style="opacity:1"/><path fill="#c1ab44" d="M51.5 51.5v113c-.333 33.673 0 67.34 1 101a1094.244 1094.244 0 0 0 93 2 1109.431 1109.431 0 0 1-94 0c-.997-71.596-1.33-143.262-1-215 0-.667.333-1 1-1Z" style="opacity:1"/><path fill="#fbd434" d="M51.5 164.5v-1h214c.333 34.007 0 68.007-1 102-29.813-.305-59.646.028-89.5 1-1.608-2.267-.775-3.267 2.5-3-.201-3.85-2.034-4.85-5.5-3l-1-54c-.671-.752-1.504-1.086-2.5-1-6.342-.166-12.675 0-19 .5-.556.383-.889.883-1 1.5a984.54 984.54 0 0 0-3 56l-2 2c-26.964-.658-53.964-1.325-81-2-2.071-3.199-5.071-4.866-9-5l1-2a2057.33 2057.33 0 0 0-3-92Z" style="opacity:1"/><path fill="#241c11" d="M47.5 53.5h1c-.333 69.502 0 138.835 1 208v6l-2-4v-210Z" style="opacity:1"/><path fill="#483c0a" d="M50.5 52.5c-.33 71.738.003 143.404 1 215h-2v-6c-.333-69.835 0-139.502 1-209Z" style="opacity:1"/><path fill="#34260e" d="M168.5 205.5a1917.16 1917.16 0 0 1 1.5 61c.717.544 1.217 1.211 1.5 2-1.517-.011-2.684-.677-3.5-2-.5-19.664-.667-39.331-.5-59a79.547 79.547 0 0 0-17.5 1 1610.981 1610.981 0 0 1-1.5 57v-58c.111-.617.444-1.117 1-1.5 6.325-.5 12.658-.666 19-.5Z" style="opacity:1"/><path fill="#f3cf40" d="M51.5 164.5a2057.33 2057.33 0 0 1 3 92l-1 2c3.929.134 6.929 1.801 9 5 27.036.675 54.036 1.342 81 2l2-2a984.54 984.54 0 0 1 3-56v59a5.727 5.727 0 0 1-3 1c-31.156.649-62.156-.018-93-2-1-33.66-1.333-67.327-1-101Z" style="opacity:1"/><path fill="#e4c548" d="M267.5 162.5v104c-.789.283-1.456.783-2 1.5-31.332.5-62.665.667-94 .5-.283-.789-.783-1.456-1.5-2a1917.16 1917.16 0 0 0-1.5-61c.996-.086 1.829.248 2.5 1l1 54c3.466-1.85 5.299-.85 5.5 3-3.275-.267-4.108.733-2.5 3a2092.284 2092.284 0 0 1 89.5-1c1-33.993 1.333-67.993 1-102l2-1Z" style="opacity:1"/><path fill="#2b2007" d="M148.5 266.5v3c-32.668.167-65.335 0-98-.5-.556-.383-.89-.883-1-1.5h2a1109.431 1109.431 0 0 0 94 0 5.727 5.727 0 0 0 3-1ZM267.5 266.5c.086.996-.248 1.829-1 2.5-31.836.831-63.503.664-95-.5 31.335.167 62.668 0 94-.5.544-.717 1.211-1.217 2-1.5Z" style="opacity:1"/></svg>
